badges/resso-dark.svg

<svg width="98" height="40" viewBox="0 0 98 40" fill="none" xmlns="http://www.w3.org/2000/svg">
<rect x="0.5" y="0.5" width="97" height="39" rx="4.5" fill="black"/>
<path d="M10.5247 29.4753C8.68315 27.6337 8 24.6338 8 20C8 15.3663 8.68315 12.3663 10.5247 10.5247C12.3663 8.68315 15.3663 8 20 8C24.6338 8 27.6337 8.68315 29.4753 10.5247C31.3169 12.3663 32 15.3663 32 20C32 24.6338 31.3169 27.6337 29.4753 29.4753C27.6337 31.3169 24.6338 32 20 32C15.3663 32 12.3663 31.3169 10.5247 29.4753Z" fill="#000039"/>
<path fill-rule="evenodd" clip-rule="evenodd" d="M25.3614 17.4803L18.5843 13.3533C16.6185 12.1561 14.1 13.5711 14.1 15.8728V18.9996C14.1 19.1371 14.2738 19.206 14.3754 19.1133C14.9794 18.5624 15.7471 18.2026 16.564 18.0982C16.6409 18.0883 16.7 18.0239 16.7 17.9464V16.2288C16.7 15.7997 17.1695 15.5358 17.536 15.759L23.7286 19.5301C24.0805 19.7445 24.0805 20.2553 23.7286 20.4696L21.9499 21.5528L18.5843 19.5033C16.6185 18.3061 14.1 19.7211 14.1 22.0228V24.1266C14.1 26.4282 16.6185 27.8437 18.5843 26.6465L21.9499 24.597L24.3004 26.0283C24.9136 26.4018 25.7134 26.2074 26.0868 25.5942C26.4603 24.981 26.2659 24.1811 25.6527 23.8077L24.4493 23.0749L25.3614 22.5195C27.2489 21.37 27.2489 18.6298 25.3614 17.4803ZM16.7 23.771V22.3788C16.7 21.9497 17.1695 21.6858 17.536 21.909L19.4505 23.0749L17.536 24.2408C17.1695 24.464 16.7 24.2001 16.7 23.771Z" fill="#FF005F"/>
<path fill-rule="evenodd" clip-rule="evenodd" d="M25.3614 17.4803L18.5843 13.3533C16.6185 12.1561 14.1 13.5711 14.1 15.8728V18.9996C14.1 19.1371 14.2738 19.206 14.3754 19.1133C14.9794 18.5624 15.7471 18.2026 16.564 18.0982C16.6409 18.0883 16.7 18.0239 16.7 17.9464V16.2288C16.7 15.7997 17.1695 15.5358 17.536 15.759L23.7286 19.5301C24.0805 19.7445 24.0805 20.2553 23.7286 20.4696L21.9499 21.5528L18.5843 19.5033C16.6185 18.3061 14.1 19.7211 14.1 22.0228V24.1266C14.1 26.4282 16.6185 27.8437 18.5843 26.6465L21.9499 24.597L24.3004 26.0283C24.9136 26.4018 25.7134 26.2074 26.0868 25.5942C26.4603 24.981 26.2659 24.1811 25.6527 23.8077L24.4493 23.0749L25.3614 22.5195C27.2489 21.37 27.2489 18.6298 25.3614 17.4803ZM16.7 23.771V22.3788C16.7 21.9497 17.1695 21.6858 17.536 21.909L19.4505 23.0749L17.536 24.2408C17.1695 24.464 16.7 24.2001 16.7 23.771Z" fill="url(#paint0_linear_120_93810)"/>
<path d="M39.7486 14.5V8.31818H40.4972V13.8359H43.3707V14.5H39.7486ZM44.4332 14.5V9.86364H45.1456V14.5H44.4332ZM44.7955 9.09091C44.6566 9.09091 44.5369 9.04362 44.4363 8.94904C44.3377 8.85446 44.2884 8.74077 44.2884 8.60795C44.2884 8.47514 44.3377 8.36145 44.4363 8.26687C44.5369 8.17229 44.6566 8.125 44.7955 8.125C44.9343 8.125 45.053 8.17229 45.1516 8.26687C45.2522 8.36145 45.3026 8.47514 45.3026 8.60795C45.3026 8.74077 45.2522 8.85446 45.1516 8.94904C45.053 9.04362 44.9343 9.09091 44.7955 9.09091ZM49.7344 10.902L49.0945 11.0831C49.0543 10.9764 48.9949 10.8728 48.9164 10.7722C48.8399 10.6696 48.7353 10.585 48.6025 10.5186C48.4697 10.4522 48.2996 10.419 48.0924 10.419C47.8086 10.419 47.5722 10.4844 47.383 10.6152C47.1959 10.744 47.1023 10.908 47.1023 11.1072C47.1023 11.2843 47.1667 11.4242 47.2955 11.5268C47.4243 11.6294 47.6255 11.715 47.8992 11.7834L48.5874 11.9524C49.0019 12.053 49.3108 12.207 49.5141 12.4142C49.7173 12.6195 49.8189 12.8841 49.8189 13.2081C49.8189 13.4737 49.7425 13.7112 49.5895 13.9205C49.4386 14.1297 49.2273 14.2947 48.9557 14.4155C48.684 14.5362 48.3681 14.5966 48.0079 14.5966C47.535 14.5966 47.1436 14.494 46.8337 14.2887C46.5238 14.0835 46.3276 13.7836 46.2451 13.3892L46.9212 13.2202C46.9856 13.4697 47.1073 13.6568 47.2864 13.7816C47.4676 13.9064 47.704 13.9688 47.9958 13.9688C48.3278 13.9688 48.5914 13.8983 48.7866 13.7575C48.9838 13.6146 49.0824 13.4435 49.0824 13.2443C49.0824 13.0833 49.0261 12.9485 48.9134 12.8398C48.8007 12.7292 48.6276 12.6467 48.3942 12.5923L47.6215 12.4112C47.1969 12.3106 46.885 12.1547 46.6858 11.9434C46.4886 11.7301 46.39 11.4634 46.39 11.1435C46.39 10.8819 46.4634 10.6504 46.6103 10.4492C46.7592 10.248 46.9615 10.09 47.217 9.97532C47.4746 9.86062 47.7664 9.80327 48.0924 9.80327C48.5512 9.80327 48.9114 9.90388 49.173 10.1051C49.4366 10.3063 49.6237 10.572 49.7344 10.902ZM52.9076 9.86364V10.4673H50.5049V9.86364H52.9076ZM51.2052 8.75284H51.9175V13.1719C51.9175 13.3731 51.9467 13.524 52.0051 13.6246C52.0654 13.7232 52.1419 13.7897 52.2345 13.8239C52.329 13.8561 52.4287 13.8722 52.5333 13.8722C52.6118 13.8722 52.6762 13.8681 52.7265 13.8601C52.7768 13.85 52.817 13.842 52.8472 13.8359L52.9921 14.4759C52.9438 14.494 52.8764 14.5121 52.7899 14.5302C52.7033 14.5503 52.5937 14.5604 52.4608 14.5604C52.2596 14.5604 52.0624 14.5171 51.8692 14.4306C51.6781 14.344 51.5191 14.2122 51.3923 14.0352C51.2675 13.8581 51.2052 13.6347 51.2052 13.3651V8.75284ZM55.8732 14.5966C55.4265 14.5966 55.0411 14.498 54.7172 14.3008C54.3952 14.1016 54.1467 13.8239 53.9716 13.4677C53.7985 13.1095 53.712 12.6929 53.712 12.218C53.712 11.7431 53.7985 11.3246 53.9716 10.9624C54.1467 10.5981 54.3902 10.3144 54.7021 10.1112C55.016 9.90589 55.3822 9.80327 55.8008 9.80327C56.0423 9.80327 56.2807 9.84351 56.5162 9.92401C56.7516 10.0045 56.9659 10.1353 57.1591 10.3164C57.3523 10.4955 57.5062 10.733 57.6209 11.0288C57.7356 11.3246 57.793 11.6888 57.793 12.1214V12.4233H54.2191V11.8075H57.0685C57.0685 11.5459 57.0162 11.3125 56.9116 11.1072C56.8089 10.902 56.6621 10.74 56.4709 10.6213C56.2817 10.5025 56.0584 10.4432 55.8008 10.4432C55.517 10.4432 55.2715 10.5136 55.0643 10.6545C54.859 10.7933 54.7011 10.9744 54.5904 11.1978C54.4797 11.4212 54.4244 11.6606 54.4244 11.9162V12.3267C54.4244 12.6768 54.4847 12.9737 54.6055 13.2172C54.7282 13.4586 54.8983 13.6428 55.1156 13.7695C55.3329 13.8943 55.5855 13.9567 55.8732 13.9567C56.0604 13.9567 56.2294 13.9305 56.3803 13.8782C56.5333 13.8239 56.6651 13.7434 56.7757 13.6367C56.8864 13.5281 56.9719 13.3932 57.0323 13.2322L57.7205 13.4254C57.6481 13.6589 57.5263 13.8641 57.3553 14.0412C57.1842 14.2163 56.973 14.3531 56.7214 14.4517C56.4699 14.5483 56.1871 14.5966 55.8732 14.5966ZM59.589 11.7109V14.5H58.8766V9.86364H59.5648V10.5881H59.6252C59.7338 10.3526 59.8989 10.1635 60.1202 10.0206C60.3416 9.87571 60.6273 9.80327 60.9775 9.80327C61.2914 9.80327 61.5661 9.86766 61.8015 9.99645C62.0369 10.1232 62.2201 10.3164 62.3509 10.576C62.4817 10.8336 62.5471 11.1596 62.5471 11.554V14.5H61.8347V11.6023C61.8347 11.238 61.7401 10.9543 61.551 10.7511C61.3618 10.5458 61.1022 10.4432 60.7722 10.4432C60.5448 10.4432 60.3416 10.4925 60.1625 10.5911C59.9854 10.6897 59.8455 10.8336 59.7429 11.0227C59.6403 11.2119 59.589 11.4413 59.589 11.7109ZM68.1229 14.5966C67.7044 14.5966 67.3371 14.497 67.0212 14.2978C66.7073 14.0985 66.4618 13.8198 66.2847 13.4616C66.1096 13.1035 66.0221 12.6849 66.0221 12.206C66.0221 11.723 66.1096 11.3014 66.2847 10.9412C66.4618 10.581 66.7073 10.3013 67.0212 10.1021C67.3371 9.90288 67.7044 9.80327 68.1229 9.80327C68.5415 9.80327 68.9077 9.90288 69.2216 10.1021C69.5376 10.3013 69.7831 10.581 69.9581 10.9412C70.1352 11.3014 70.2238 11.723 70.2238 12.206C70.2238 12.6849 70.1352 13.1035 69.9581 13.4616C69.7831 13.8198 69.5376 14.0985 69.2216 14.2978C68.9077 14.497 68.5415 14.5966 68.1229 14.5966ZM68.1229 13.9567C68.4409 13.9567 68.7025 13.8752 68.9077 13.7122C69.113 13.5492 69.2649 13.3349 69.3635 13.0692C69.4621 12.8036 69.5114 12.5159 69.5114 12.206C69.5114 11.8961 69.4621 11.6073 69.3635 11.3397C69.2649 11.072 69.113 10.8557 68.9077 10.6907C68.7025 10.5257 68.4409 10.4432 68.1229 10.4432C67.805 10.4432 67.5434 10.5257 67.3381 10.6907C67.1329 10.8557 66.9809 11.072 66.8823 11.3397C66.7837 11.6073 66.7344 11.8961 66.7344 12.206C66.7344 12.5159 66.7837 12.8036 66.8823 13.0692C66.9809 13.3349 67.1329 13.5492 67.3381 13.7122C67.5434 13.8752 67.805 13.9567 68.1229 13.9567ZM72.0235 11.7109V14.5H71.3112V9.86364H71.9994V10.5881H72.0597C72.1684 10.3526 72.3334 10.1635 72.5548 10.0206C72.7761 9.87571 73.0619 9.80327 73.412 9.80327C73.7259 9.80327 74.0006 9.86766 74.2361 9.99645C74.4715 10.1232 74.6546 10.3164 74.7854 10.576C74.9162 10.8336 74.9816 11.1596 74.9816 11.554V14.5H74.2693V11.6023C74.2693 11.238 74.1747 10.9543 73.9855 10.7511C73.7964 10.5458 73.5368 10.4432 73.2068 10.4432C72.9794 10.4432 72.7761 10.4925 72.597 10.5911C72.42 10.6897 72.2801 10.8336 72.1775 11.0227C72.0748 11.2119 72.0235 11.4413 72.0235 11.7109Z" fill="white"/>
<path d="M39.5412 30.5V17.7727H43.8416C44.8359 17.7727 45.6521 17.9426 46.2901 18.2823C46.9281 18.6179 47.4005 19.0798 47.707 19.6681C48.0136 20.2565 48.1669 20.9255 48.1669 21.6754C48.1669 22.4253 48.0136 23.0903 47.707 23.6703C47.4005 24.2503 46.9302 24.706 46.2963 25.0375C45.6625 25.3648 44.8525 25.5284 43.8665 25.5284H40.3864V24.1364H43.8168C44.4962 24.1364 45.0431 24.0369 45.4574 23.8381C45.8758 23.6392 46.1783 23.3575 46.3647 22.9929C46.5553 22.6242 46.6506 22.185 46.6506 21.6754C46.6506 21.1658 46.5553 20.7205 46.3647 20.3393C46.1741 19.9582 45.8696 19.664 45.4512 19.4569C45.0327 19.2456 44.4796 19.1399 43.7919 19.1399H41.0824V30.5H39.5412ZM45.532 24.7827L48.6641 30.5H46.8743L43.7919 24.7827H45.532ZM54.1858 30.6989C53.266 30.6989 52.4726 30.4959 51.8056 30.0898C51.1427 29.6797 50.6311 29.108 50.2706 28.3746C49.9143 27.6372 49.7362 26.7796 49.7362 25.8018C49.7362 24.8241 49.9143 23.9624 50.2706 23.2166C50.6311 22.4667 51.1324 21.8826 51.7745 21.4641C52.4209 21.0415 53.1749 20.8303 54.0366 20.8303C54.5338 20.8303 55.0247 20.9131 55.5095 21.0788C55.9942 21.2446 56.4354 21.5138 56.8331 21.8867C57.2309 22.2554 57.5478 22.7443 57.784 23.3533C58.0201 23.9624 58.1382 24.7122 58.1382 25.603V26.2244H50.7802V24.9567H56.6467C56.6467 24.4181 56.539 23.9375 56.3236 23.5149C56.1123 23.0923 55.8098 22.7588 55.4162 22.5144C55.0268 22.2699 54.5669 22.1477 54.0366 22.1477C53.4525 22.1477 52.947 22.2927 52.5203 22.5827C52.0977 22.8686 51.7725 23.2415 51.5446 23.7013C51.3167 24.1612 51.2028 24.6542 51.2028 25.1804V26.0256C51.2028 26.7464 51.3271 27.3575 51.5757 27.8588C51.8284 28.356 52.1785 28.7351 52.6259 28.9961C53.0734 29.253 53.5933 29.3814 54.1858 29.3814C54.5711 29.3814 54.9191 29.3275 55.2298 29.2198C55.5447 29.108 55.816 28.9422 56.0439 28.7227C56.2718 28.4989 56.4478 28.2214 56.5721 27.8899L57.989 28.2876C57.8399 28.7682 57.5892 29.1908 57.2371 29.5554C56.8849 29.9158 56.4499 30.1976 55.932 30.4006C55.4142 30.5994 54.8321 30.6989 54.1858 30.6989ZM66.8805 23.0923L65.5631 23.4652C65.4802 23.2456 65.358 23.0323 65.1964 22.8251C65.039 22.6138 64.8236 22.4398 64.5501 22.3031C64.2767 22.1664 63.9266 22.098 63.4999 22.098C62.9157 22.098 62.4289 22.2327 62.0395 22.502C61.6542 22.7671 61.4615 23.1048 61.4615 23.5149C61.4615 23.8795 61.5941 24.1674 61.8592 24.3787C62.1244 24.59 62.5387 24.7661 63.1021 24.907L64.519 25.255C65.3725 25.4621 66.0084 25.7791 66.4269 26.2058C66.8453 26.6284 67.0546 27.1732 67.0546 27.8402C67.0546 28.3871 66.8971 28.8759 66.5823 29.3068C66.2715 29.7377 65.8365 30.0774 65.2772 30.326C64.7179 30.5746 64.0675 30.6989 63.3259 30.6989C62.3523 30.6989 61.5464 30.4876 60.9084 30.065C60.2704 29.6424 59.8665 29.0251 59.6966 28.2131L61.0886 27.8651C61.2212 28.3788 61.4719 28.7641 61.8406 29.021C62.2135 29.2778 62.7003 29.4062 63.301 29.4062C63.9846 29.4062 64.5273 29.2612 64.9292 28.9712C65.3352 28.6771 65.5382 28.3249 65.5382 27.9148C65.5382 27.5833 65.4222 27.3058 65.1902 27.082C64.9582 26.8542 64.6019 26.6843 64.1213 26.5724L62.5304 26.1996C61.6562 25.9924 61.0141 25.6713 60.6039 25.2363C60.1979 24.7972 59.9949 24.2482 59.9949 23.5895C59.9949 23.0509 60.1461 22.5745 60.4486 22.1602C60.7551 21.7459 61.1715 21.4206 61.6977 21.1845C62.228 20.9483 62.8287 20.8303 63.4999 20.8303C64.4445 20.8303 65.1861 21.0374 65.7247 21.4517C66.2674 21.866 66.6527 22.4129 66.8805 23.0923ZM75.7736 23.0923L74.4561 23.4652C74.3733 23.2456 74.2511 23.0323 74.0895 22.8251C73.9321 22.6138 73.7166 22.4398 73.4432 22.3031C73.1697 22.1664 72.8197 22.098 72.3929 22.098C71.8088 22.098 71.322 22.2327 70.9325 22.502C70.5472 22.7671 70.3546 23.1048 70.3546 23.5149C70.3546 23.8795 70.4872 24.1674 70.7523 24.3787C71.0175 24.59 71.4318 24.7661 71.9952 24.907L73.4121 25.255C74.2656 25.4621 74.9015 25.7791 75.32 26.2058C75.7384 26.6284 75.9476 27.1732 75.9476 27.8402C75.9476 28.3871 75.7902 28.8759 75.4753 29.3068C75.1646 29.7377 74.7296 30.0774 74.1703 30.326C73.611 30.5746 72.9605 30.6989 72.2189 30.6989C71.2453 30.6989 70.4395 30.4876 69.8015 30.065C69.1635 29.6424 68.7595 29.0251 68.5897 28.2131L69.9817 27.8651C70.1143 28.3788 70.3649 28.7641 70.7337 29.021C71.1065 29.2778 71.5933 29.4062 72.1941 29.4062C72.8777 29.4062 73.4204 29.2612 73.8223 28.9712C74.2283 28.6771 74.4313 28.3249 74.4313 27.9148C74.4313 27.5833 74.3153 27.3058 74.0833 27.082C73.8513 26.8542 73.495 26.6843 73.0144 26.5724L71.4235 26.1996C70.5493 25.9924 69.9071 25.6713 69.497 25.2363C69.091 24.7972 68.888 24.2482 68.888 23.5895C68.888 23.0509 69.0392 22.5745 69.3416 22.1602C69.6482 21.7459 70.0646 21.4206 70.5907 21.1845C71.121 20.9483 71.7218 20.8303 72.3929 20.8303C73.3375 20.8303 74.0791 21.0374 74.6177 21.4517C75.1605 21.866 75.5458 22.4129 75.7736 23.0923ZM81.7832 30.6989C80.9214 30.6989 80.1653 30.4938 79.5149 30.0836C78.8686 29.6735 78.3631 29.0997 77.9985 28.3622C77.6381 27.6248 77.4579 26.763 77.4579 25.777C77.4579 24.7827 77.6381 23.9147 77.9985 23.1731C78.3631 22.4315 78.8686 21.8556 79.5149 21.4455C80.1653 21.0353 80.9214 20.8303 81.7832 20.8303C82.6449 20.8303 83.3989 21.0353 84.0452 21.4455C84.6957 21.8556 85.2011 22.4315 85.5616 23.1731C85.9262 23.9147 86.1084 24.7827 86.1084 25.777C86.1084 26.763 85.9262 27.6248 85.5616 28.3622C85.2011 29.0997 84.6957 29.6735 84.0452 30.0836C83.3989 30.4938 82.6449 30.6989 81.7832 30.6989ZM81.7832 29.3814C82.4378 29.3814 82.9763 29.2136 83.3989 28.878C83.8215 28.5424 84.1343 28.1012 84.3373 27.5543C84.5403 27.0075 84.6418 26.415 84.6418 25.777C84.6418 25.139 84.5403 24.5444 84.3373 23.9934C84.1343 23.4424 83.8215 22.997 83.3989 22.6573C82.9763 22.3176 82.4378 22.1477 81.7832 22.1477C81.1286 22.1477 80.59 22.3176 80.1674 22.6573C79.7448 22.997 79.432 23.4424 79.229 23.9934C79.026 24.5444 78.9245 25.139 78.9245 25.777C78.9245 26.415 79.026 27.0075 79.229 27.5543C79.432 28.1012 79.7448 28.5424 80.1674 28.878C80.59 29.2136 81.1286 29.3814 81.7832 29.3814Z" fill="white"/>
<rect x="0.5" y="0.5" width="97" height="39" rx="4.5" stroke="#A6A6A6"/>
<defs>
<linearGradient id="paint0_linear_120_93810" x1="12.625" y1="27.0748" x2="26.7749" y2="12.9248" gradientUnits="userSpaceOnUse">
<stop offset="0.458122" stop-color="#FF0061"/>
<stop offset="0.759773" stop-color="#FF505E"/>
</linearGradient>
</defs>
</svg>

<svg xmlns="http://www.w3.org/2000/svg" width="98" height="40" fill="none" viewBox="0 0 98 40">
  <rect width="97" height="39" x=".5" y=".5" fill="#000" rx="4.5"/>
  <rect width="97" height="39" x=".5" y=".5" stroke="#A6A6A6" rx="4.5"/>
  <path fill="#FF005F" fill-rule="evenodd" d="M28.343 15.73 16.859 8.738c-3.331-2.028-7.599.37-7.599 4.27v5.298c0 .233.295.35.467.193a6.805 6.805 0 0 1 3.708-1.72.262.262 0 0 0 .23-.257v-2.91a.932.932 0 0 1 1.418-.797l10.493 6.39a.932.932 0 0 1 0 1.592l-3.014 1.836-5.703-3.473c-3.331-2.029-7.599.369-7.599 4.27v3.564c0 3.9 4.268 6.299 7.599 4.27l5.703-3.473 3.983 2.426a2.203 2.203 0 1 0 2.291-3.763l-2.039-1.242 1.546-.941c3.198-1.948 3.198-6.591 0-8.54ZM13.666 26.39v-2.359a.932.932 0 0 1 1.416-.796l3.245 1.976-3.245 1.976a.932.932 0 0 1-1.416-.797Z" clip-rule="evenodd"/>
  <path fill="url(#a)" fill-rule="evenodd" d="M28.343 15.73 16.859 8.738c-3.331-2.028-7.599.37-7.599 4.27v5.298c0 .233.295.35.467.193a6.805 6.805 0 0 1 3.708-1.72.262.262 0 0 0 .23-.257v-2.91a.932.932 0 0 1 1.418-.797l10.493 6.39a.932.932 0 0 1 0 1.592l-3.014 1.836-5.703-3.473c-3.331-2.029-7.599.369-7.599 4.27v3.564c0 3.9 4.268 6.299 7.599 4.27l5.703-3.473 3.983 2.426a2.203 2.203 0 1 0 2.291-3.763l-2.039-1.242 1.546-.941c3.198-1.948 3.198-6.591 0-8.54ZM13.666 26.39v-2.359a.932.932 0 0 1 1.416-.796l3.245 1.976-3.245 1.976a.932.932 0 0 1-1.416-.797Z" clip-rule="evenodd"/>
  <path fill="#fff" d="M39.749 14.5V8.318h.748v5.518h2.874v.664h-3.622Zm4.684 0V9.864h.713V14.5h-.713Zm.362-5.41a.506.506 0 0 1-.359-.141.456.456 0 0 1-.148-.341c0-.133.05-.247.148-.341.1-.095.22-.142.36-.142.138 0 .257.047.356.142.1.094.15.208.15.341 0 .133-.05.246-.15.341a.496.496 0 0 1-.357.142Zm4.94 1.812-.64.181c-.04-.107-.1-.21-.179-.31a.865.865 0 0 0-.313-.254 1.14 1.14 0 0 0-.51-.1c-.284 0-.52.065-.71.196-.187.129-.28.293-.28.492a.51.51 0 0 0 .192.42c.13.102.33.188.604.256l.688.17c.415.1.724.254.927.461.203.206.305.47.305.794 0 .266-.077.503-.23.713-.15.209-.362.374-.633.495a2.33 2.33 0 0 1-.948.18c-.473 0-.864-.102-1.174-.307-.31-.205-.506-.505-.589-.9l.676-.169c.065.25.186.437.365.562.182.124.418.187.71.187.332 0 .595-.07.79-.211.198-.143.296-.314.296-.514a.54.54 0 0 0-.169-.404c-.112-.11-.285-.193-.519-.248l-.773-.18c-.424-.101-.736-.257-.935-.469a1.133 1.133 0 0 1-.296-.8c0-.261.073-.493.22-.694a1.5 1.5 0 0 1 .607-.474 2.13 2.13 0 0 1 .875-.172c.46 0 .82.1 1.081.302.264.201.45.467.561.797Zm3.173-1.038v.603h-2.403v-.603h2.403Zm-1.703-1.111h.712v4.419c0 .201.03.352.088.453.06.098.137.165.23.199a.92.92 0 0 0 .298.048c.079 0 .143-.004.194-.012l.12-.024.145.64a1.491 1.491 0 0 1-.531.085c-.201 0-.399-.044-.592-.13a1.177 1.177 0 0 1-.477-.396c-.125-.177-.187-.4-.187-.67V8.753Zm4.668 5.844c-.447 0-.832-.099-1.156-.296a1.99 1.99 0 0 1-.745-.833c-.174-.358-.26-.775-.26-1.25s.086-.893.26-1.256c.175-.364.418-.648.73-.85.314-.206.68-.309 1.099-.309.241 0 .48.04.715.121.236.08.45.211.643.392.193.18.347.417.462.713.115.296.172.66.172 1.092v.302h-3.574v-.616h2.85a1.52 1.52 0 0 0-.157-.7 1.183 1.183 0 0 0-.441-.486 1.234 1.234 0 0 0-.67-.178c-.284 0-.53.07-.737.212a1.39 1.39 0 0 0-.474.543c-.11.223-.166.463-.166.718v.41c0 .35.06.648.181.891.123.242.293.426.51.553.218.124.47.187.758.187.187 0 .356-.027.507-.079.153-.054.285-.135.396-.241.11-.109.196-.244.256-.405l.689.193a1.526 1.526 0 0 1-.366.616 1.78 1.78 0 0 1-.634.41 2.35 2.35 0 0 1-.848.146Zm3.716-2.886V14.5h-.712V9.864h.688v.724h.06a1.33 1.33 0 0 1 .495-.567c.222-.145.507-.218.858-.218.313 0 .588.065.823.193.236.127.42.32.55.58.13.258.196.584.196.978V14.5h-.712v-2.898c0-.364-.095-.648-.284-.85-.19-.206-.449-.309-.779-.309-.227 0-.43.05-.61.148a1.058 1.058 0 0 0-.42.432 1.43 1.43 0 0 0-.153.688Zm8.534 2.886c-.419 0-.786-.1-1.102-.3a2.018 2.018 0 0 1-.736-.835c-.175-.358-.263-.777-.263-1.256 0-.483.088-.905.263-1.265.177-.36.422-.64.736-.839.316-.2.683-.299 1.102-.299.418 0 .785.1 1.099.3.316.198.561.478.736.838.177.36.266.782.266 1.265 0 .479-.089.898-.266 1.256-.175.358-.42.636-.736.836a2.01 2.01 0 0 1-1.1.299Zm0-.64c.318 0 .58-.082.785-.245a1.44 1.44 0 0 0 .456-.643 2.47 2.47 0 0 0 .147-.863c0-.31-.049-.599-.147-.866a1.46 1.46 0 0 0-.456-.65c-.206-.164-.467-.247-.785-.247s-.58.083-.785.248a1.46 1.46 0 0 0-.456.649 2.487 2.487 0 0 0-.148.866c0 .31.05.598.148.863.099.266.25.48.456.643.205.163.467.245.785.245Zm3.9-2.246V14.5h-.712V9.864H72v.724h.06c.11-.235.274-.424.496-.567.221-.145.507-.218.857-.218.314 0 .589.065.824.193a1.3 1.3 0 0 1 .55.58c.13.258.196.584.196.978V14.5h-.713v-2.898c0-.364-.094-.648-.284-.85-.189-.206-.448-.309-.778-.309-.228 0-.43.05-.61.148a1.059 1.059 0 0 0-.42.432 1.43 1.43 0 0 0-.154.688ZM39.541 30.5V17.773h4.3c.995 0 1.811.17 2.45.51.637.335 1.11.797 1.416 1.385.307.588.46 1.258.46 2.007 0 .75-.153 1.415-.46 1.995-.306.58-.777 1.036-1.41 1.367-.634.328-1.444.491-2.43.491h-3.48v-1.392h3.43c.68 0 1.226-.1 1.64-.298.419-.199.721-.48.908-.845.19-.369.286-.808.286-1.318s-.096-.954-.286-1.336c-.19-.38-.495-.675-.914-.882-.418-.211-.971-.317-1.66-.317h-2.709V30.5h-1.54Zm5.991-5.717 3.132 5.717h-1.79l-3.082-5.717h1.74Zm8.654 5.916c-.92 0-1.713-.203-2.38-.61a4.087 4.087 0 0 1-1.535-1.714c-.357-.738-.535-1.595-.535-2.573s.178-1.84.535-2.585c.36-.75.861-1.334 1.504-1.753.646-.422 1.4-.634 2.262-.634.497 0 .988.083 1.473.249a3.65 3.65 0 0 1 1.323.808c.398.368.715.857.951 1.466.236.61.354 1.36.354 2.25v.621H50.78v-1.267h5.867a3.13 3.13 0 0 0-.323-1.442 2.435 2.435 0 0 0-.908-1c-.39-.245-.85-.367-1.38-.367-.584 0-1.089.145-1.516.435a2.862 2.862 0 0 0-.975 1.118c-.228.46-.342.953-.342 1.48v.845c0 .72.124 1.332.373 1.833a2.69 2.69 0 0 0 1.05 1.137c.447.257.967.385 1.56.385.385 0 .733-.053 1.044-.161.315-.112.586-.278.814-.497a2.26 2.26 0 0 0 .528-.833l1.417.398c-.15.48-.4.903-.752 1.267a3.67 3.67 0 0 1-1.305.846c-.518.198-1.1.298-1.746.298Zm12.694-7.607-1.317.373a2.448 2.448 0 0 0-.367-.64 1.778 1.778 0 0 0-.646-.522c-.273-.137-.623-.205-1.05-.205-.584 0-1.071.135-1.46.404-.386.265-.578.603-.578 1.013 0 .364.132.652.397.864.265.211.68.387 1.243.528l1.417.348c.853.207 1.49.524 1.908.95.418.423.628.968.628 1.635 0 .547-.158 1.036-.473 1.467-.31.43-.745.77-1.305 1.019-.56.249-1.21.373-1.951.373-.974 0-1.78-.211-2.418-.634-.638-.423-1.041-1.04-1.211-1.852l1.392-.348c.132.514.383.9.752 1.156.373.257.86.385 1.46.385.684 0 1.226-.145 1.628-.435.406-.294.61-.646.61-1.056a1.11 1.11 0 0 0-.349-.833c-.232-.228-.588-.398-1.069-.51l-1.59-.372c-.875-.208-1.517-.529-1.927-.964-.406-.439-.61-.988-.61-1.646 0-.54.152-1.015.455-1.43.306-.414.723-.74 1.249-.976.53-.236 1.13-.354 1.802-.354.945 0 1.686.207 2.225.622a3.35 3.35 0 0 1 1.156 1.64Zm8.894 0-1.318.373a2.445 2.445 0 0 0-.367-.64 1.78 1.78 0 0 0-.646-.522c-.273-.137-.623-.205-1.05-.205-.584 0-1.071.135-1.46.404-.386.265-.578.603-.578 1.013 0 .364.132.652.397.864.266.211.68.387 1.243.528l1.417.348c.854.207 1.49.524 1.908.95.418.423.628.968.628 1.635 0 .547-.158 1.036-.473 1.467-.31.43-.745.77-1.305 1.019-.559.249-1.21.373-1.951.373-.974 0-1.78-.211-2.417-.634-.639-.423-1.043-1.04-1.212-1.852l1.392-.348c.132.514.383.9.752 1.156.373.257.86.385 1.46.385.684 0 1.226-.145 1.628-.435.406-.294.61-.646.61-1.056a1.11 1.11 0 0 0-.349-.833c-.232-.228-.588-.398-1.069-.51l-1.59-.372c-.875-.208-1.517-.529-1.927-.964-.406-.439-.609-.988-.609-1.646 0-.54.151-1.015.454-1.43.306-.414.723-.74 1.249-.976.53-.236 1.13-.354 1.802-.354.945 0 1.686.207 2.225.622a3.35 3.35 0 0 1 1.156 1.64Zm6.01 7.607c-.863 0-1.619-.205-2.27-.615-.645-.41-1.15-.984-1.515-1.722-.36-.737-.541-1.599-.541-2.585 0-.994.18-1.862.54-2.604.365-.741.87-1.317 1.517-1.727.65-.41 1.406-.616 2.268-.616.862 0 1.616.205 2.262.616.65.41 1.156.985 1.517 1.727.364.742.546 1.61.546 2.604 0 .986-.182 1.848-.546 2.585-.36.738-.866 1.312-1.517 1.722-.646.41-1.4.615-2.262.615Zm0-1.318c.654 0 1.192-.167 1.615-.503.422-.336.735-.777.938-1.324a5.063 5.063 0 0 0 .305-1.777 5.12 5.12 0 0 0-.305-1.784 3.006 3.006 0 0 0-.938-1.336c-.423-.34-.961-.51-1.616-.51-.654 0-1.193.17-1.616.51-.422.34-.735.785-.938 1.336a5.12 5.12 0 0 0-.305 1.784c0 .638.102 1.23.305 1.777.203.547.516.988.938 1.324.423.336.962.503 1.616.503Z"/>
  <defs>
    <linearGradient id="a" x1="6.761" x2="30.738" y1="31.989" y2="8.011" gradientUnits="userSpaceOnUse">
      <stop offset=".458" stop-color="#FF0061"/>
      <stop offset=".76" stop-color="#FF505E"/>
    </linearGradient>
  </defs>
</svg>
